X:1
T:Hallelujah unto Jesus
T:Howard E. Smith
T:Hallelujah unto Jesus
T:Public Domain
T:Public Domain
C:Howard E. Smith
Z:Public Domain
%%score ( 1 2 ) ( 3 4 )
L:1/8
M:4/4
K:D
V:1 treble 
V:2 treble 
V:3 bass 
V:4 bass 
V:1
 d>d | (cBAG) F2 [CE]>[CE] | D2 [DF]4 [FA]>[FA] | [GB]2 [Bd]2 [Ac]2 [GB]2 | [FA]6 [DF]>[DF] | %5
w: 1.~Hal- le-|lu- * * * jah un- to|sus! Now He lives|die no more; Let|all na- tions|
w: 2.~Hal- le-|lu- * * * jah un- to|sus! Who for us|bled, and died, He|is now o’er|
w: 3.~Hal- le-|lu- * * * jah un- to|sus! Bless- èd first-|of the dead; He|our re- sur-|
w: 4.~Hal- le-|lu- * * * jah un- to|sus! Death is robbed|of its sting; And|the tomb for|
 [EG]2 [GB]2 [FA]2 [EG]2 | [DF]2 [FA]4 [FA]>[FA] | [GB]2 [Ge]2 [Fd]2 (EG) | [Fd]6 || %9
w: sing His prais- es,|Glad- ly sing them|o’er and o’er. * *||
w: death, the vic- tor,|Hail Him king the|Cru- ci- fied. Hal- *|lu-|
w: rec- tion Sure- ty,|Lives for us our|ris- en king. * *||
w: us is light- ed,|Hal- le- lu- jah|to our king. * *||
"^Refrain" d>d | (cBAG) F2 B>B | (AGFE) D2 [DF]>[DF] | [CE]2 [EA]2 [^GB]2 [Ge]2 | [Ge]6 A>A | %14
w: |||||
w: jah! Hal-|jah! * * * Hal- le- lu-|king! * * * From the tomb|today He’s ris- en,|Hal- le- lu-|
w: |||||
w: |||||
 [Ad]2 [Gd]2 [Fd]2 [Ac]2 | [Ac]2 [GB]4 d>d | (cBAG) E2 [CA]2 | D6 |] %18
w: ||||
w: jah we’ll sing. *||||
w: ||||
w: ||||
V:2
 x2 | x4 F2 x2 | D2 x6 | x8 | x8 | x8 | x8 | x6 c2 | x6 || d>d | x4 F2 B>B | x8 | x8 | x8 | x8 | %15
w: |Je-|to|||||||||||||
w: |Je-|once|||||le-||le- lu-|jah to our|||||
w: |Je-|fruits|||||||||||||
w: |Je-|now|||||||||||||
 x6 d>d | x4 E2 x2 | D6 |] %18
w: |||
w: |||
w: |||
w: |||
V:3
 D>D | (CB,A,G,) F,2 [A,,G,]>[A,,G,] | [D,F,]2 [D,A,]4 [D,D]>[D,D] | [G,D]2 [G,D]2 (G,A,)(B,C) | %4
 D6 [D,A,]>[D,A,] | [A,,A,]2 [A,,A,]2 (A,,B,,)(C,A,,) | [D,A,]2 [D,A,]4 [D,D]>[D,D] | %7
 [G,D]2 [G,B,]2 A,2 [A,,A,]2 | [D,A,]6 || D>D | (CB,A,G,) F,2 B,>B, | %11
 (A,G,F,E,) D,2 [D,A,]>[D,A,] | [E,A,]2 [E,C]2 [E,E]2 [E,D]2 | [A,C]6 [A,C]>[G,C] | %14
 [F,D]2 [E,A,]2 [D,A,]2 [F,D]2 | [G,D]2 [G,D]4 D>D | (CB,A,G,) E,2 [A,,G,]2 | [D,F,]6 |] %18
V:4
 x2 | x4 F,2 x2 | x8 | x4 D2 D2 | D6 x2 | x4 A,2 A,2 | x8 | x4 A,2 x2 | x6 || D>D | x4 F,2 B,>B, | %11
 x8 | x8 | x8 | x8 | x6 D>D | x4 E,2 x2 | x6 |] %18

